icon/gr/cli.svg

<svg xmlns="http://www.w3.org/2000/svg" width="24" height="24"><path fill="none" stroke="#000" stroke-width="2" d="M1 1h22v22H1V1Zm0 4h22M5 1v4m6 11h8M5 10l3 3-3 3"/></svg>

<svg xmlns="http://www.w3.org/2000/svg" viewBox="0 0 24 24" height="1em" width="1em">
  <path fill="none" stroke="#000" stroke-width="2" d="M1,1 L23,1 L23,23 L1,23 L1,1 Z M1,5 L23,5 M5,1 L5,5 M11,16 L19,16 M5,10 L8,13 L5,16"/>
</svg>
